newicons/going_balls.svg

<?xml version="1.0" encoding="UTF-8" standalone="no"?>
<svg
   viewBox="0 0 48 48"
   version="1.1"
   id="svg1"
   sodipodi:docname="going_balls.svg"
   inkscape:version="1.2.2 (b0a8486541, 2022-12-01)"
   xml:space="preserve"
   xmlns:inkscape="http://www.inkscape.org/namespaces/inkscape"
   xmlns:sodipodi="http://sodipodi.sourceforge.net/DTD/sodipodi-0.dtd"
   xmlns="http://www.w3.org/2000/svg"
   xmlns:svg="http://www.w3.org/2000/svg"><sodipodi:namedview
     id="namedview1"
     pagecolor="#505050"
     bordercolor="#eeeeee"
     borderopacity="1"
     inkscape:showpageshadow="0"
     inkscape:pageopacity="0"
     inkscape:pagecheckerboard="0"
     inkscape:deskcolor="#505050"
     inkscape:zoom="12.59534"
     inkscape:cx="9.3685446"
     inkscape:cy="25.168039"
     inkscape:window-width="1918"
     inkscape:window-height="1053"
     inkscape:window-x="0"
     inkscape:window-y="0"
     inkscape:window-maximized="1"
     inkscape:current-layer="svg1"
     showgrid="false" /><defs
     id="defs1"><style
       id="style1">.a { fill:none;stroke:#fff;stroke-linecap:round;stroke-linejoin:round; }
</style></defs><path
     id="path1645"
     style="fill:none;stroke:#ffffff;stroke-linecap:round;stroke-linejoin:round;stroke-dashoffset:3.6;stroke-opacity:1"
     d="m 28.561239,9.2157457 c 3.403863,0.4161023 6.611553,0.675071 8.122207,3.2552263 2.311256,3.611215 3.312207,4.714476 5.732645,5.471539 M 37.83961,42.500166 28.480722,16.548636 c -0.756365,-2.097347 -3.651,-3.460228 -7.227797,-4.169747 -6.225283,-0.926996 -6.824001,-2.06229 -3.970212,-2.7030551 M 9.5867172,42.500274 20.066372,16.739696 c 1.353415,-3.364057 -2.986378,-3.670141 -5.234924,-4.304409 -7.5735923,-2.136355 1.012095,-2.6249586 5.450119,-3.0252825 5.663442,-0.5108607 13.851696,-0.2509828 16.448763,1.1186795 2.353885,1.241411 3.379003,3.972524 5.765192,5.583866 M 26.910707,25.259907 24,23.910939 21.089294,25.259907 m 5.864388,11.063395 C 25.785016,36.245802 25.179141,36.008672 24,35.623545 c -1.17914,0.385127 -1.785015,0.622257 -2.953681,0.699757 M 20.902584,31.267601 24,29.505385 l 3.097417,1.762216 m 2.539503,-6.540535 c 0.544731,4.263241 0.450122,7.806449 0.253746,10.740159 M 18.360601,24.7465 c -0.541964,4.254576 -0.447344,7.791474 -0.251266,10.720725 M 31.932326,30.304794 A 7.9323258,7.9323258 0 0 1 24,38.23712 7.9323258,7.9323258 0 0 1 16.067675,30.304794 7.9323258,7.9323258 0 0 1 24,22.372468 a 7.9323258,7.9323258 0 0 1 7.932326,7.932326 v 0 M 9.5,5.5 h 29 c 2.216,0 4,1.784 4,4 v 29 c 0,2.216 -1.784,4 -4,4 h -29 c -2.216,0 -4,-1.784 -4,-4 v -29 c 0,-2.216 1.784,-4 4,-4 z" /></svg>

<?xml version="1.0" encoding="UTF-8"?><svg id="b" xmlns="http://www.w3.org/2000/svg" viewBox="0 0 48 48"><defs><style>.d{fill:none;stroke:#fff;stroke-linecap:round;stroke-linejoin:round;}</style></defs><path id="c" class="d" d="M28.5612,9.2156c3.4039.4161,6.6116.6751,8.1222,3.2552,2.3113,3.6112,3.3122,4.7145,5.7326,5.4715M37.8396,42.5l-9.3589-25.9515c-.7564-2.0973-3.651-3.4602-7.2278-4.1697-6.2253-.927-6.824-2.0623-3.9702-2.7031M9.5867,42.5001l10.4797-25.7606c1.3534-3.3641-2.9864-3.6701-5.2349-4.3044-7.5736-2.1364,1.0121-2.625,5.4501-3.0253,5.6634-.5109,13.8517-.251,16.4488,1.1187,2.3539,1.2414,3.379,3.9725,5.7652,5.5839M26.9107,25.2598l-2.9107-1.349-2.9107,1.349M26.9537,36.3232c-1.1687-.0775-1.7745-.3146-2.9537-.6998-1.1791.3851-1.785.6223-2.9537.6998M20.9026,31.2675l3.0974-1.7622,3.0974,1.7622M29.6369,24.7269c.5447,4.2632.4501,7.8064.2537,10.7402M18.3606,24.7464c-.542,4.2546-.4473,7.7915-.2513,10.7207M31.9323,30.3047c0,4.3809-3.5514,7.9323-7.9323,7.9323h0c-4.3809,0-7.9323-3.5514-7.9323-7.9323h0c0-4.3809,3.5514-7.9323,7.9323-7.9323s7.9323,3.5514,7.9323,7.9323h0M9.5,5.4999h29c2.216,0,4,1.784,4,4v29c0,2.216-1.784,4-4,4H9.5c-2.216,0-4-1.784-4-4V9.4999c0-2.216,1.784-4,4-4Z"/></svg>
